azure-patterns/svg-roadmap.svg

<svg xmlns="http://www.w3.org/2000/svg" viewBox="0 0 60 60">
                                
                            
  <g fill="none" fill-rule="evenodd">
    <path fill="#1E1E1E" d="M14 54.6361209C14 55.9416191 13.0078659 57 11.7842338 57L7.21576621 57C5.99213412 57 5 55.9416191 5 54.6361209L5 43.3638791C5 42.0583809 5.99213412 41 7.21576621 41L11.7842338 41C13.0078659 41 14 42.0583809 14 43.3638791L14 54.6361209zM56 54.6361209C56 55.9416191 55.0078659 57 53.7842338 57L49.2157662 57C47.9921341 57 47 55.9416191 47 54.6361209L47 43.3638791C47 42.0583809 47.9921341 41 49.2157662 41L53.7842338 41C55.0078659 41 56 42.0583809 56 43.3638791L56 54.6361209z"></path>
    <path fill="#00BCF2" d="M56 44.1078823C56 44.6006711 55.6610752 45 55.2431963 45L5.75728513 45C5.33940624 45 5 44.6006711 5 44.1078823L5.78135649 38.8921177C5.78135649 38.3993289 6.12076273 38 6.53864162 38L54.4618398 38C54.8802001 38 55.2186435 38.3993289 55.2186435 38.8921177L56 44.1078823zM54.9261534 48.4970263C54.9261534 48.7567666 54.5868411 49 54.1684843 49L6.83151568 49C6.41315894 49 6.07384656 48.7567666 6.07384656 48.4970263L5 45.519966C5 45.2607113 5.33931238 45 5.75766912 45L55.2418489 45C55.6602056 45 56 45.2607113 56 45.519966L54.9261534 48.4970263zM53.7680256 51.6448179C53.7680256 51.8408964 53.4387563 52 53.0328011 52L6.96767816 52C6.56124375 52 6.23197436 51.8408964 6.23197436 51.6448179L6 49.3932773C6 49.1971989 6.32926939 49 6.7357038 49L53.2642962 49C53.6707306 49 54 49.1971989 54 49.3932773L53.7680256 51.6448179z"></path>
    <path fill="#1E1E1E" d="M56,44.1078823 C56,44.6006711 55.6610752,45 55.2431963,45 L5.75728513,45 C5.33940624,45 5,44.6006711 5,44.1078823 L5.78135649,38.8921177 C5.78135649,38.3993289 6.12076273,38 6.53864162,38 L54.4618398,38 C54.8802001,38 55.2186435,38.3993289 55.2186435,38.8921177 L56,44.1078823 Z"></path>
    <path fill="#A0A1A2" d="M56,37.1573943 C56,37.6228336 55.657701,38 55.2345746,38 L6.76542537,38 C6.34278591,38 6,37.6228336 6,37.1573943 L9.5330321,31.8426057 C9.5330321,31.3766943 9.87581801,31 10.2989444,31 L51.7010556,31 C52.1236951,31 52.466481,31.3766943 52.466481,31.8426057 L56,37.1573943 Z"></path>
    <path fill="#001F50" d="M51,31.1111664 C51,31.6021412 50.6724653,32 50.2691257,32 L10.7308743,32 C10.3270579,32 10,31.6021412 10,31.1111664 L15.8684489,24.8888336 C15.8684489,24.3983568 16.1955068,24 16.5993232,24 L44.4006768,24 C44.8044932,24 45.1315511,24.3983568 45.1315511,24.8888336 L51,31.1111664 Z"></path>
    <path fill="#A0A1A2" d="M46,24.7760243 C46,24.9259484 45.7222313,25 45.379568,25 L16.6199403,25 C16.2777687,25 16,24.9259484 16,24.7760243 L19.0097342,23.2003035 C19.0097342,23.0509863 19.2875029,23 19.6296745,23 L42.3698338,23 C42.7124971,23 42.9902658,23.0509863 42.9902658,23.2003035 L46,24.7760243 Z"></path>
    <path fill="#59B4D9" d="M50,31.2324178 C50,31.656263 49.6802711,32 49.286575,32 L10.713425,32 C10.3197289,32 10,31.656263 10,31.2324178 L15.7837535,25.7675822 C15.7837535,25.343737 16.1034824,25 16.4971785,25 L43.5028215,25 C43.8965176,25 44.2162465,25.343737 44.2162465,25.7675822 L50,31.2324178 Z"></path>
    <path fill="#7A7A7A" d="M54.9261534,48.4970263 C54.9261534,48.7567666 54.5868411,49 54.1684843,49 L6.83151568,49 C6.41315894,49 6.07384656,48.7567666 6.07384656,48.4970263 L5,45.519966 C5,45.2607113 5.33931238,45 5.75766912,45 L55.2418489,45 C55.6602056,45 56,45.2607113 56,45.519966 L54.9261534,48.4970263 Z"></path>
    <path fill="#1E1E1E" d="M54.9261534,49.4966019 C54.9261534,49.7563107 54.5868411,50 54.1684843,50 L6.83151568,50 C6.41315894,50 6.07384656,49.7563107 6.07384656,49.4966019 L5,46.5199029 C5,46.2606796 5.33931238,46 5.75766912,46 L55.2418489,46 C55.6602056,46 56,46.2606796 56,46.5199029 L54.9261534,49.4966019 Z"></path>
    <path fill="#7A7A7A" d="M53.7680256,51.6448179 C53.7680256,51.8408964 53.4387563,52 53.0328011,52 L6.96767816,52 C6.56124375,52 6.23197436,51.8408964 6.23197436,51.6448179 L6,49.3932773 C6,49.1971989 6.32926939,49 6.7357038,49 L53.2642962,49 C53.6707306,49 54,49.1971989 54,49.3932773 L53.7680256,51.6448179 Z"></path>
    <path fill="#E5E5E5" d="M14 42.2120945C14 42.6473185 13.6425878 43 13.2019147 43L7.79808529 43C7.35741224 43 7 42.6473185 7 42.2120945L7 39.7874641C7 39.3522401 7.35741224 39 7.79808529 39L13.2019147 39C13.6425878 39 14 39.3522401 14 39.7874641L14 42.2120945zM23 42.2120945C23 42.6473185 22.6425878 43 22.2019147 43L16.7980853 43C16.3569046 43 16 42.6473185 16 42.2120945L16 39.7874641C16 39.3522401 16.3569046 39 16.7980853 39L22.2019147 39C22.6425878 39 23 39.3522401 23 39.7874641L23 42.2120945zM35 42.6157815C35 42.7820941 34.673049 43 34.232376 43L28.767624 43C28.3264433 43 28 42.7820941 28 42.6157815L28 41.3004552C28 41.1347496 28.3264433 41 28.767624 41L34.232376 41C34.673049 41 35 41.1347496 35 41.3004552L35 42.6157815z"></path>
    <path fill="#FF8C00" d="M17 46.8551194C17 46.965601 16.7350062 47 16.2938574 47L10.8289941 47C10.388353 47 10 46.965601 10 46.8551194L10 46.1448806C10 46.0339943 10.388353 46 10.8289941 46L16.2938574 46C16.7350062 46 17 46.0339943 17 46.1448806L17 46.8551194zM51 46.8551194C51 46.965601 50.673049 47 50.232376 47L44.767624 47C44.3264433 47 44 46.965601 44 46.8551194L44 46.1448806C44 46.0339943 44.3264433 46 44.767624 46L50.232376 46C50.673049 46 51 46.0339943 51 46.1448806L51 46.8551194z"></path>
    <path fill="#E5E5E5" d="M46 42.2120945C46 42.6473185 45.6425878 43 45.2019147 43L39.7980853 43C39.3569046 43 39 42.6473185 39 42.2120945L39 39.7874641C39 39.3522401 39.3569046 39 39.7980853 39L45.2019147 39C45.6425878 39 46 39.3522401 46 39.7874641L46 42.2120945zM54 42.2120945C54 42.6473185 53.6430954 43 53.2019147 43L47.7980853 43C47.3574122 43 47 42.6473185 47 42.2120945L47 39.7874641C47 39.3522401 47.3574122 39 47.7980853 39L53.2019147 39C53.6430954 39 54 39.3522401 54 39.7874641L54 42.2120945z"></path>
    <path fill="#1E1E1E" d="M26.7160554,23 L25.4748603,17.4808031 C25.0089871,16.7484948 21.2071897,11.1498337 13.8037406,10.3804103 C5.52246782,9.52390938 1.08719942,15.0473888 1.04444984,15.1025855 L0,14.3188871 C0.199174156,14.067171 4.92834588,8.16492789 13.9431625,9.10041725 C22.5125091,9.99117822 26.498907,16.6352463 26.6640758,16.9174158 L26.7359728,17.0996602 L28,22.7230647 L26.7160554,23 Z"></path>
    <path fill="#A0A1A2" d="M26.6959644,17.2650286 C26.6959644,17.2650286 23.8344002,12.427883 17.762093,10.3890095 C17.953966,9.99907438 18.0090732,9.53505154 17.8763151,9.08223934 L16.7230726,5.15559228 C16.464069,4.27385141 15.594378,3.79715567 14.7958252,4.08278318 L13.9065962,4.40204259 C13.1080434,4.68815751 12.670693,5.63472511 12.9296966,6.51646599 L13.368049,9.54918669 C4.81191205,8.96233427 1,13.9301082 1,13.9301082 L2.30403562,17.289887 L14.528305,12.4902726 C14.528305,12.4902726 17.2435847,12.9040913 19.7429446,14.4102159 C22.0128583,15.777426 24.0888951,18.225244 24.0888951,18.225244 L25.3924297,23 L28,23 L26.6959644,17.2650286 Z"></path>
    <path fill="#1E1E1E" d="M9 12.7532012C9 13.1693598 4.14646764 15 3.73835977 15 3.33025189 15 3 14.6625 3 14.2463415 3 13.8297256 7.85353236 12 8.26164023 12 8.66923925 12 9 12.3370427 9 12.7532012M33.2840115 23L32 22.7230754 33.3364796 16.9176503C33.501657 16.6354917 37.4882623 9.99167977 46.058055 9.10095314 55.0859721 8.16264495 59.8027587 14.0675154 60 14.3192218L58.9574391 15.1038416C58.9142014 15.0481712 54.4427518 9.52442894 46.1974842 10.3808969 38.7698447 11.1536212 34.9892253 16.7487358 34.5252711 17.4805401L33.2840115 23z"></path>
    <path fill="#A0A1A2" d="M33.3040114,17.2650286 C33.3040114,17.2650286 36.1660235,12.427883 42.238218,10.3890095 C42.0458476,9.99907438 41.9912424,9.53505154 42.1234971,9.08223934 L43.2772191,5.15559228 C43.5362179,4.27385141 44.4058928,3.79715567 45.2039298,4.08278318 L46.0936433,4.40204259 C46.8916803,4.68815751 47.3290226,5.63472511 47.0700237,6.51646599 L46.6316795,9.54918669 C55.1881587,8.96233427 59,13.9301082 59,13.9301082 L57.6959886,17.289887 L45.471946,12.4902726 C45.471946,12.4902726 42.7567166,12.9040913 40.2574031,14.4102159 C37.9875315,15.777426 35.9115333,18.225244 35.9115333,18.225244 L34.6080229,23 L32,23 L33.3040114,17.2650286 Z"></path>
    <path fill="#1E1E1E" d="M51 12.766403C51 13.1898557 54.9876887 15 55.348041 15 55.7079439 15 56 14.6565845 56 14.2331317 56 13.8096789 52.0123113 12 51.651959 12 51.2916068 12 51 12.3429502 51 12.766403M29.9888481 31.8603848C29.9755622 32.0130412 29.8943136 32.006198 29.7946691 31.9946171L17.1684371 30.5075328C17.0687926 30.4954255 16.988566 30.4833183 17.001341 30.3306618L17.0110499 30.2195911C17.0243358 30.0669347 17.1127384 29.9895536 17.2118718 30.0011345L29.8386149 31.4882189C29.9377484 31.4997997 30.011332 31.5966576 29.998557 31.7498404L29.9888481 31.8603848zM42.9888477 31.8603848C42.9755614 32.0130412 42.8943102 32.006198 42.7946626 31.9946171L30.1680264 30.5075328C30.0688897 30.4954255 29.9881496 30.4833183 30.0014359 30.3306618L30.0111452 30.2195911C30.0239205 30.0669347 30.1123259 29.9895536 30.2119736 30.0011345L42.8386097 31.4882189C42.9377464 31.4997997 43.0113323 31.5966576 42.998557 31.7498404L42.9888477 31.8603848z"></path>
  </g>
</svg>

<svg xmlns="http://www.w3.org/2000/svg" viewBox="0 0 60 60"><g fill="none" fill-rule="evenodd"><path fill="#1E1E1E" d="M14 54.636C14 55.942 13.008 57 11.784 57H7.216C5.992 57 5 55.942 5 54.636V43.364C5 42.058 5.992 41 7.216 41h4.568C13.008 41 14 42.058 14 43.364v11.272zm42 0C56 55.942 55.008 57 53.784 57h-4.568C47.992 57 47 55.942 47 54.636V43.364c0-1.306.992-2.364 2.216-2.364h4.568C55.008 41 56 42.058 56 43.364v11.272z"/><path fill="#00BCF2" d="M56 44.108c0 .493-.339.892-.757.892H5.757C5.34 45 5 44.6 5 44.108l.781-5.216c0-.493.34-.892.758-.892h47.923c.418 0 .757.4.757.892L56 44.108zm-1.074 4.389c0 .26-.34.503-.758.503H6.832c-.419 0-.758-.243-.758-.503L5 45.52c0-.26.34-.52.758-.52h49.484c.418 0 .758.26.758.52l-1.074 2.977zm-1.158 3.148c0 .196-.33.355-.735.355H6.968c-.407 0-.736-.16-.736-.355L6 49.393c0-.196.33-.393.736-.393h46.528c.407 0 .736.197.736.393l-.232 2.252z"/><path fill="#1E1E1E" d="M56 44.108c0 .493-.339.892-.757.892H5.757C5.34 45 5 44.6 5 44.108l.781-5.216c0-.493.34-.892.758-.892h47.923c.418 0 .757.4.757.892L56 44.108z"/><path fill="#A0A1A2" d="M56 37.157c0 .466-.342.843-.765.843H6.765C6.343 38 6 37.623 6 37.157l3.533-5.314c0-.466.343-.843.766-.843H51.7c.423 0 .765.377.765.843L56 37.157z"/><path fill="#001F50" d="M51 31.111c0 .491-.328.889-.73.889H10.73c-.403 0-.73-.398-.73-.889l5.868-6.222c0-.49.328-.889.731-.889h27.802c.403 0 .73.398.73.889L51 31.11z"/><path fill="#A0A1A2" d="M46 24.776c0 .15-.278.224-.62.224H16.62c-.342 0-.62-.074-.62-.224l3.01-1.576c0-.149.278-.2.62-.2h22.74c.342 0 .62.051.62.2L46 24.776z"/><path fill="#59B4D9" d="M50 31.232c0 .424-.32.768-.713.768H10.713c-.393 0-.713-.344-.713-.768l5.784-5.464c0-.424.32-.768.713-.768h27.006c.394 0 .713.344.713.768L50 31.232z"/><path fill="#7A7A7A" d="M54.926 48.497c0 .26-.34.503-.758.503H6.832c-.419 0-.758-.243-.758-.503L5 45.52c0-.26.34-.52.758-.52h49.484c.418 0 .758.26.758.52l-1.074 2.977z"/><path fill="#1E1E1E" d="M54.926 49.497c0 .26-.34.503-.758.503H6.832c-.419 0-.758-.244-.758-.503L5 46.52c0-.26.34-.52.758-.52h49.484c.418 0 .758.26.758.52l-1.074 2.977z"/><path fill="#7A7A7A" d="M53.768 51.645c0 .196-.33.355-.735.355H6.968c-.407 0-.736-.16-.736-.355L6 49.393c0-.196.33-.393.736-.393h46.528c.407 0 .736.197.736.393l-.232 2.252z"/><path fill="#E5E5E5" d="M14 42.212a.793.793 0 0 1-.798.788H7.798A.793.793 0 0 1 7 42.212v-2.425c0-.435.357-.787.798-.787h5.404c.44 0 .798.352.798.787v2.425zm9 0a.793.793 0 0 1-.798.788h-5.404a.793.793 0 0 1-.798-.788v-2.425c0-.435.357-.787.798-.787h5.404c.44 0 .798.352.798.787v2.425zm12 .404c0 .166-.327.384-.768.384h-5.464c-.442 0-.768-.218-.768-.384V41.3c0-.165.326-.3.768-.3h5.464c.441 0 .768.135.768.3v1.316z"/><path fill="#FF8C00" d="M17 46.855c0 .11-.265.145-.706.145h-5.465c-.44 0-.829-.034-.829-.145v-.71c0-.111.388-.145.829-.145h5.465c.441 0 .706.034.706.145v.71zm34 0c0 .11-.327.145-.768.145h-5.464c-.442 0-.768-.034-.768-.145v-.71c0-.111.326-.145.768-.145h5.464c.441 0 .768.034.768.145v.71z"/><path fill="#E5E5E5" d="M46 42.212a.793.793 0 0 1-.798.788h-5.404a.793.793 0 0 1-.798-.788v-2.425c0-.435.357-.787.798-.787h5.404c.44 0 .798.352.798.787v2.425zm8 0a.793.793 0 0 1-.798.788h-5.404a.793.793 0 0 1-.798-.788v-2.425c0-.435.357-.787.798-.787h5.404c.441 0 .798.352.798.787v2.425z"/><path fill="#1E1E1E" d="M26.716 23l-1.241-5.52c-.466-.732-4.268-6.33-11.671-7.1-8.282-.856-12.717 4.667-12.76 4.723L0 14.319c.2-.252 4.928-6.154 13.943-5.219 8.57.891 12.556 7.535 12.721 7.817l.072.183L28 22.723 26.716 23z"/><path fill="#A0A1A2" d="M26.696 17.265s-2.862-4.837-8.934-6.876c.192-.39.247-.854.114-1.307l-1.153-3.926c-.259-.882-1.129-1.359-1.927-1.073l-.89.319c-.798.286-1.235 1.233-.976 2.114l.438 3.033C4.812 8.962 1 13.93 1 13.93l1.304 3.36 12.224-4.8s2.716.414 5.215 1.92c2.27 1.367 4.346 3.815 4.346 3.815L25.392 23H28l-1.304-5.735z"/><path fill="#1E1E1E" d="M9 12.753C9 13.17 4.146 15 3.738 15A.746.746 0 0 1 3 14.246C3 13.83 7.854 12 8.262 12c.407 0 .738.337.738.753M33.284 23L32 22.723l1.336-5.805c.166-.283 4.152-6.926 12.722-7.817 9.028-.938 13.745 4.967 13.942 5.218l-1.043.785c-.043-.056-4.514-5.58-12.76-4.723-7.427.773-11.208 6.368-11.672 7.1L33.284 23z"/><path fill="#A0A1A2" d="M33.304 17.265s2.862-4.837 8.934-6.876a1.805 1.805 0 0 1-.115-1.307l1.154-3.926c.26-.882 1.129-1.359 1.927-1.073l.89.319c.798.286 1.235 1.233.976 2.114l-.438 3.033C55.188 8.962 59 13.93 59 13.93l-1.304 3.36-12.224-4.8s-2.715.414-5.215 1.92c-2.27 1.367-4.345 3.815-4.345 3.815L34.608 23H32l1.304-5.735z"/><path fill="#1E1E1E" d="M51 12.766C51 13.19 54.988 15 55.348 15c.36 0 .652-.343.652-.767C56 13.81 52.012 12 51.652 12c-.36 0-.652.343-.652.766M29.989 31.86c-.013.153-.095.146-.194.135l-12.627-1.487c-.1-.013-.18-.025-.167-.177l.01-.111c.013-.153.102-.23.2-.219l12.628 1.487c.099.012.172.109.16.262l-.01.11zm13 0c-.013.153-.095.146-.194.135l-12.627-1.487c-.1-.013-.18-.025-.167-.177l.01-.111c.013-.153.101-.23.201-.219l12.627 1.487c.099.012.172.109.16.262l-.01.11z"/></g></svg>
